Newaita-dark/.places-mint/32/folder-black.svg

<?xml version="1.0" encoding="UTF-8"?>
<svg xmlns="http://www.w3.org/2000/svg" xmlns:xlink="http://www.w3.org/1999/xlink" width="32px" height="32px" viewBox="0 0 32 32" version="1.1">
<defs>
<linearGradient id="linear0" gradientUnits="userSpaceOnUse" x1="254" y1="233.5" x2="254" y2="254.666672" gradientTransform="matrix(0.062506,0,0,0.062506,-0.00000381506,13.438787)">
<stop offset="0" style="stop-color:rgb(0%,0%,0%);stop-opacity:0.27451;"/>
<stop offset="1" style="stop-color:rgb(0%,0%,0%);stop-opacity:0;"/>
</linearGradient>
<radialGradient id="radial0" gradientUnits="userSpaceOnUse" cx="450.908936" cy="189.579361" fx="450.908936" fy="189.579361" r="21.166656" gradientTransform="matrix(0.00000017417,-0.0781325,-0.140638,-0.000000101539,54.115213,63.595334)">
<stop offset="0" style="stop-color:rgb(0%,0%,0%);stop-opacity:0.313726;"/>
<stop offset="0.222222" style="stop-color:rgb(0%,0%,0%);stop-opacity:0.27451;"/>
<stop offset="1" style="stop-color:rgb(0%,0%,0%);stop-opacity:0;"/>
</radialGradient>
<radialGradient id="radial1" gradientUnits="userSpaceOnUse" cx="450.908936" cy="189.579361" fx="450.908936" fy="189.579361" r="21.166656" gradientTransform="matrix(-0.00000017417,0.0781325,0.140638,0.000000101539,-22.362178,-7.527477)">
<stop offset="0" style="stop-color:rgb(0%,0%,0%);stop-opacity:0.313726;"/>
<stop offset="0.222222" style="stop-color:rgb(0%,0%,0%);stop-opacity:0.27451;"/>
<stop offset="1" style="stop-color:rgb(0%,0%,0%);stop-opacity:0;"/>
</radialGradient>
<radialGradient id="radial2" gradientUnits="userSpaceOnUse" cx="450.908936" cy="189.579361" fx="450.908936" fy="189.579361" r="21.166656" gradientTransform="matrix(-0.00000017417,-0.0781325,0.140638,-0.000000101539,-22.362178,63.595334)">
<stop offset="0" style="stop-color:rgb(0%,0%,0%);stop-opacity:0.313726;"/>
<stop offset="0.222222" style="stop-color:rgb(0%,0%,0%);stop-opacity:0.27451;"/>
<stop offset="1" style="stop-color:rgb(0%,0%,0%);stop-opacity:0;"/>
</radialGradient>
<radialGradient id="radial3" gradientUnits="userSpaceOnUse" cx="450.908936" cy="189.579361" fx="450.908936" fy="189.579361" r="21.166656" gradientTransform="matrix(0.00000017417,0.0781325,-0.140638,0.000000101539,54.115211,-7.527477)">
<stop offset="0" style="stop-color:rgb(0%,0%,0%);stop-opacity:0.313726;"/>
<stop offset="0.222222" style="stop-color:rgb(0%,0%,0%);stop-opacity:0.27451;"/>
<stop offset="1" style="stop-color:rgb(0%,0%,0%);stop-opacity:0;"/>
</radialGradient>
<linearGradient id="linear1" gradientUnits="userSpaceOnUse" x1="254" y1="-147.5" x2="254" y2="-31.083334" gradientTransform="matrix(0.062506,0,0,0.062506,0.00000271693,13.438781)">
<stop offset="0" style="stop-color:rgb(64.313728%,64.313728%,64.313728%);stop-opacity:0;"/>
<stop offset="1" style="stop-color:rgb(100%,100%,100%);stop-opacity:0.196078;"/>
</linearGradient>
<linearGradient id="linear2" gradientUnits="userSpaceOnUse" x1="254" y1="233.5" x2="254" y2="-105.166656" gradientTransform="matrix(0.062506,0,0,0.062506,-0.0937696,13.438783)">
<stop offset="0" style="stop-color:rgb(34.509805%,34.509805%,34.509805%);stop-opacity:0;"/>
<stop offset="1" style="stop-color:rgb(98.039216%,98.039216%,98.039216%);stop-opacity:0.196078;"/>
</linearGradient>
</defs>
<g id="surface1">
<path style=" stroke:none;fill-rule:nonzero;fill:url(#linear0);" d="M 3.96875 28.035156 L 27.785156 28.035156 L 27.785156 29.355469 L 3.96875 29.355469 Z M 3.96875 28.035156 "/>
<path style=" stroke:none;fill-rule:nonzero;fill:url(#radial0);" d="M 27.785156 28.035156 L 30.429688 28.035156 L 30.429688 26.710938 L 27.785156 26.710938 Z M 27.785156 28.035156 "/>
<path style=" stroke:none;fill-rule:nonzero;fill:url(#radial1);" d="M 3.96875 28.035156 L 1.324219 28.035156 L 1.324219 29.355469 L 3.96875 29.355469 Z M 3.96875 28.035156 "/>
<path style=" stroke:none;fill-rule:nonzero;fill:url(#radial2);" d="M 3.96875 28.035156 L 1.324219 28.035156 L 1.324219 26.710938 L 3.96875 26.710938 Z M 3.96875 28.035156 "/>
<path style=" stroke:none;fill-rule:nonzero;fill:url(#radial3);" d="M 27.785156 28.035156 L 30.429688 28.035156 L 30.429688 29.355469 L 27.785156 29.355469 Z M 27.785156 28.035156 "/>
<path style=" stroke:none;fill-rule:nonzero;fill:rgb(25.882354%,25.882354%,25.882354%);fill-opacity:1;" d="M 7.277344 4.21875 L 28.777344 4.21875 C 29.507812 4.21875 30.097656 4.8125 30.097656 5.542969 L 30.097656 10.503906 C 30.097656 11.234375 29.507812 11.828125 28.777344 11.828125 L 7.277344 11.828125 C 6.546875 11.828125 5.953125 11.234375 5.953125 10.503906 L 5.953125 5.542969 C 5.953125 4.8125 6.546875 4.21875 7.277344 4.21875 Z M 7.277344 4.21875 "/>
<path style=" stroke:none;fill-rule:nonzero;fill:url(#linear1);" d="M 7.277344 4.21875 L 28.777344 4.21875 C 29.507812 4.21875 30.097656 4.8125 30.097656 5.542969 L 30.097656 10.503906 C 30.097656 11.234375 29.507812 11.828125 28.777344 11.828125 L 7.277344 11.828125 C 6.546875 11.828125 5.953125 11.234375 5.953125 10.503906 L 5.953125 5.542969 C 5.953125 4.8125 6.546875 4.21875 7.277344 4.21875 Z M 7.277344 4.21875 "/>
<path style=" stroke:none;fill-rule:nonzero;fill:rgb(90.196079%,90.196079%,90.196079%);fill-opacity:0.392157;" d="M 7.277344 4.300781 C 6.542969 4.300781 5.953125 4.890625 5.953125 5.625 L 5.953125 5.789062 C 5.953125 5.058594 6.542969 4.46875 7.277344 4.46875 L 28.777344 4.46875 C 29.507812 4.46875 30.097656 5.058594 30.097656 5.789062 L 30.097656 5.625 C 30.097656 4.890625 29.507812 4.300781 28.777344 4.300781 Z M 7.277344 4.300781 "/>
<path style=" stroke:none;fill-rule:nonzero;fill:rgb(12.941177%,12.941177%,12.941177%);fill-opacity:1;" d="M 7.277344 4.125 C 6.492188 4.125 5.859375 4.757812 5.859375 5.542969 L 5.859375 10.503906 C 5.859375 11.285156 6.492188 11.921875 7.277344 11.921875 L 28.777344 11.921875 C 29.558594 11.921875 30.191406 11.285156 30.191406 10.503906 L 30.191406 5.542969 C 30.191406 4.757812 29.558594 4.125 28.777344 4.125 Z M 7.277344 4.3125 L 28.777344 4.3125 C 29.457031 4.3125 30.003906 4.859375 30.003906 5.542969 L 30.003906 10.503906 C 30.003906 11.1875 29.457031 11.734375 28.777344 11.734375 L 7.277344 11.734375 C 6.59375 11.734375 6.046875 11.1875 6.046875 10.503906 L 6.046875 5.542969 C 6.046875 4.859375 6.59375 4.3125 7.277344 4.3125 Z M 7.277344 4.3125 "/>
<path style=" stroke:none;fill-rule:nonzero;fill:rgb(38.039216%,38.039216%,38.039216%);fill-opacity:1;" d="M 2.644531 6.863281 C 1.914062 6.863281 1.324219 7.457031 1.324219 8.1875 L 1.324219 26.710938 C 1.324219 27.445312 1.914062 28.035156 2.644531 28.035156 L 29.105469 28.035156 C 29.839844 28.035156 30.429688 27.445312 30.429688 26.710938 L 30.429688 10.171875 L 12.570312 10.171875 C 11.835938 10.171875 11.246094 9.582031 11.246094 8.851562 L 11.246094 6.863281 Z M 2.644531 6.863281 "/>
<path style=" stroke:none;fill-rule:nonzero;fill:url(#linear2);" d="M 2.550781 6.863281 C 1.820312 6.863281 1.230469 7.457031 1.230469 8.1875 L 1.230469 26.710938 C 1.230469 27.445312 1.820312 28.035156 2.550781 28.035156 L 29.011719 28.035156 C 29.746094 28.035156 30.335938 27.445312 30.335938 26.710938 L 30.335938 10.171875 L 12.476562 10.171875 C 11.742188 10.171875 11.152344 9.582031 11.152344 8.851562 L 11.152344 6.863281 Z M 2.550781 6.863281 "/>
<path style=" stroke:none;fill-rule:nonzero;fill:rgb(0%,0%,0%);fill-opacity:0.196078;" d="M 2.679688 27.941406 C 1.949219 27.941406 1.359375 27.351562 1.359375 26.617188 L 1.359375 26.453125 C 1.359375 27.1875 1.949219 27.777344 2.679688 27.777344 L 29.140625 27.777344 C 29.875 27.777344 30.464844 27.1875 30.464844 26.453125 L 30.464844 26.617188 C 30.464844 27.351562 29.875 27.941406 29.140625 27.941406 Z M 2.679688 27.941406 "/>
<path style=" stroke:none;fill-rule:nonzero;fill:rgb(90.196079%,90.196079%,90.196079%);fill-opacity:0.392157;" d="M 2.644531 6.949219 C 1.914062 6.949219 1.324219 7.539062 1.324219 8.269531 L 1.324219 8.4375 C 1.324219 7.703125 1.914062 7.113281 2.644531 7.113281 L 11.246094 7.113281 L 11.246094 6.949219 Z M 2.644531 6.949219 "/>
<path style=" stroke:none;fill-rule:nonzero;fill:rgb(90.196079%,90.196079%,90.196079%);fill-opacity:0.392157;" d="M 12.484375 10.339844 C 11.753906 10.339844 11.164062 9.75 11.164062 9.015625 L 11.164062 8.851562 C 11.164062 9.582031 11.753906 10.175781 12.484375 10.171875 L 30.429688 10.171875 L 30.429688 10.339844 Z M 12.484375 10.339844 "/>
<path style=" stroke:none;fill-rule:nonzero;fill:rgb(12.941177%,12.941177%,12.941177%);fill-opacity:1;" d="M 2.644531 6.769531 C 1.863281 6.769531 1.230469 7.40625 1.230469 8.1875 L 1.230469 26.710938 C 1.230469 27.496094 1.863281 28.128906 2.644531 28.128906 L 29.105469 28.128906 C 29.890625 28.128906 30.523438 27.496094 30.523438 26.710938 L 30.523438 9.984375 L 12.570312 9.984375 C 11.886719 9.984375 11.339844 9.4375 11.339844 8.757812 L 11.339844 6.769531 Z M 2.644531 6.960938 L 11.152344 6.960938 L 11.152344 8.757812 C 11.152344 9.539062 11.785156 10.171875 12.570312 10.171875 L 30.335938 10.171875 L 30.335938 26.710938 C 30.335938 27.394531 29.789062 27.941406 29.105469 27.941406 L 2.644531 27.941406 C 1.964844 27.941406 1.417969 27.394531 1.417969 26.710938 L 1.417969 8.1875 C 1.417969 7.503906 1.964844 6.960938 2.644531 6.960938 Z M 2.644531 6.960938 "/>
</g>
</svg>

<svg xmlns="http://www.w3.org/2000/svg" width="32" height="32"><defs><linearGradient id="a" gradientUnits="userSpaceOnUse" x1="254" y1="233.5" x2="254" y2="254.667" gradientTransform="matrix(.0625 0 0 .0625 0 13.439)"><stop offset="0" stop-opacity=".275"/><stop offset="1" stop-opacity="0"/></linearGradient><radialGradient id="b" gradientUnits="userSpaceOnUse" cx="450.909" cy="189.579" fx="450.909" fy="189.579" r="21.167" gradientTransform="matrix(0 -.07813 -.14064 0 54.115 63.595)"><stop offset="0" stop-opacity=".314"/><stop offset=".222" stop-opacity=".275"/><stop offset="1" stop-opacity="0"/></radialGradient><radialGradient id="c" gradientUnits="userSpaceOnUse" cx="450.909" cy="189.579" fx="450.909" fy="189.579" r="21.167" gradientTransform="matrix(0 .07813 .14064 0 -22.362 -7.527)"><stop offset="0" stop-opacity=".314"/><stop offset=".222" stop-opacity=".275"/><stop offset="1" stop-opacity="0"/></radialGradient><radialGradient id="d" gradientUnits="userSpaceOnUse" cx="450.909" cy="189.579" fx="450.909" fy="189.579" r="21.167" gradientTransform="matrix(0 -.07813 .14064 0 -22.362 63.595)"><stop offset="0" stop-opacity=".314"/><stop offset=".222" stop-opacity=".275"/><stop offset="1" stop-opacity="0"/></radialGradient><radialGradient id="e" gradientUnits="userSpaceOnUse" cx="450.909" cy="189.579" fx="450.909" fy="189.579" r="21.167" gradientTransform="matrix(0 .07813 -.14064 0 54.115 -7.527)"><stop offset="0" stop-opacity=".314"/><stop offset=".222" stop-opacity=".275"/><stop offset="1" stop-opacity="0"/></radialGradient><linearGradient id="f" gradientUnits="userSpaceOnUse" x1="254" y1="-147.5" x2="254" y2="-31.083" gradientTransform="matrix(.0625 0 0 .0625 0 13.439)"><stop offset="0" stop-color="#a4a4a4" stop-opacity="0"/><stop offset="1" stop-color="#fff" stop-opacity=".196"/></linearGradient><linearGradient id="g" gradientUnits="userSpaceOnUse" x1="254" y1="233.5" x2="254" y2="-105.167" gradientTransform="matrix(.0625 0 0 .0625 -.094 13.439)"><stop offset="0" stop-color="#585858" stop-opacity="0"/><stop offset="1" stop-color="#fafafa" stop-opacity=".196"/></linearGradient></defs><path d="M3.969 28.035h23.816v1.32H3.97zm0 0" fill="url(#a)"/><path d="M27.785 28.035h2.645v-1.324h-2.645zm0 0" fill="url(#b)"/><path d="M3.969 28.035H1.324v1.32H3.97zm0 0" fill="url(#c)"/><path d="M3.969 28.035H1.324v-1.324H3.97zm0 0" fill="url(#d)"/><path d="M27.785 28.035h2.645v1.32h-2.645zm0 0" fill="url(#e)"/><path d="M7.277 4.219h21.5c.73 0 1.32.593 1.32 1.324v4.96c0 .731-.59 1.325-1.32 1.325h-21.5c-.73 0-1.324-.594-1.324-1.324V5.543c0-.73.594-1.324 1.324-1.324zm0 0" fill="#424242"/><path d="M7.277 4.219h21.5c.73 0 1.32.593 1.32 1.324v4.96c0 .731-.59 1.325-1.32 1.325h-21.5c-.73 0-1.324-.594-1.324-1.324V5.543c0-.73.594-1.324 1.324-1.324zm0 0" fill="url(#f)"/><path d="M7.277 4.219a1.32 1.32 0 0 0-1.324 1.324v.164c0-.734.59-1.324 1.324-1.324h21.5c.73 0 1.32.59 1.32 1.324v-.164a1.32 1.32 0 0 0-1.32-1.324zm0 0" fill="#e6e6e6" fill-opacity=".588"/><path d="M7.277 4.125c-.785 0-1.418.633-1.418 1.418v4.96c0 .782.633 1.419 1.418 1.419h21.5c.782 0 1.414-.637 1.414-1.418V5.543c0-.785-.632-1.418-1.414-1.418zm0 .188h21.5c.68 0 1.227.546 1.227 1.23v4.96c0 .684-.547 1.231-1.227 1.231h-21.5c-.683 0-1.23-.546-1.23-1.23V5.543c0-.684.547-1.23 1.23-1.23zm0 0" fill="#212121"/><path d="M2.645 6.863c-.73 0-1.32.594-1.32 1.324v18.524c0 .734.59 1.324 1.32 1.324h26.46a1.32 1.32 0 0 0 1.325-1.324V10.17H12.57a1.32 1.32 0 0 1-1.324-1.32V6.864zm0 0" fill="#424242"/><path d="M2.55 6.863c-.73 0-1.32.594-1.32 1.324v18.524c0 .734.59 1.324 1.32 1.324h26.462a1.32 1.32 0 0 0 1.324-1.324V10.17h-17.86a1.32 1.32 0 0 1-1.324-1.32V6.864zm0 0" fill="url(#g)"/><path d="M2.68 27.941c-.73 0-1.32-.59-1.32-1.324v-.164c0 .735.59 1.324 1.32 1.324h26.46a1.32 1.32 0 0 0 1.325-1.324v.164a1.32 1.32 0 0 1-1.324 1.324zm0 0" fill-opacity=".196"/><path d="M2.645 6.863c-.73 0-1.32.594-1.32 1.324v.168c0-.734.59-1.324 1.32-1.324h8.601v-.168zm0 0M12.484 10.254c-.73 0-1.32-.59-1.32-1.32v-.168c0 .734.59 1.324 1.32 1.324H30.43v.164zm0 0" fill="#e6e6e6" fill-opacity=".937"/><path d="M2.645 6.77c-.782 0-1.415.636-1.415 1.418V26.71c0 .785.633 1.418 1.415 1.418h26.46c.786 0 1.418-.633 1.418-1.418V9.984H12.57c-.683 0-1.23-.546-1.23-1.226V6.77zm0 .19h8.507v1.798c0 .781.633 1.414 1.418 1.414h17.766V26.71c0 .684-.547 1.23-1.23 1.23H2.644c-.68 0-1.227-.546-1.227-1.23V8.188c0-.684.547-1.227 1.227-1.227zm0 0" fill="#212121"/></svg>
